static/images/logos/trusted-by/ibm.svg

<svg xmlns="http://www.w3.org/2000/svg" width="74" height="30" viewBox="0 0 74 30" fill="none">
    <g clip-path="url(#clip0_1895_40350)">
        <path d="M0 27.793H14.388V29.8725H0V27.793Z" fill="#ADADB0"/>
        <path d="M0 23.8008H14.388V25.8877H0V23.8008Z" fill="#ADADB0"/>
        <path d="M4.10547 19.8203H10.277V21.9073H4.10547V19.8203Z" fill="#ADADB0"/>
        <path d="M4.10547 15.8398H10.277V17.9268H4.10547V15.8398Z" fill="#ADADB0"/>
        <path d="M4.10547 11.8594H10.277V13.9464H4.10547V11.8594Z" fill="#ADADB0"/>
        <path d="M4.10547 7.87109H10.277V9.95807H4.10547V7.87109Z" fill="#ADADB0"/>
        <path d="M14.388 3.88672H0V5.9737H14.388V3.88672Z" fill="#ADADB0"/>
        <path d="M14.388 -0.09375H0V1.99323H14.388V-0.09375Z" fill="#ADADB0"/>
        <path d="M16.4414 25.8878H38.5695C38.9433 25.2439 39.2219 24.5408 39.3905 23.8008H16.4414V25.8878Z" fill="#ADADB0"/>
        <path d="M36.8465 15.8398H20.5527V17.9268H38.569C38.0998 17.1275 37.5208 16.4245 36.8465 15.8398Z" fill="#ADADB0"/>
        <path d="M20.5527 11.8594V13.9464H36.8465C37.5355 13.3617 38.1145 12.6586 38.569 11.8594H20.5527Z" fill="#ADADB0"/>
        <path d="M38.5696 3.88672H16.4414V5.9737H39.3905C39.2 5.23363 38.9214 4.53062 38.5696 3.88672Z" fill="#ADADB0"/>
        <path d="M31.7677 -0.09375H16.4414V1.99323H37.0523C35.6744 0.705491 33.8054 -0.09375 31.7677 -0.09375Z" fill="#ADADB0"/>
        <path d="M26.7169 7.87109H20.5527V9.95807H26.7169V7.87109Z" fill="#ADADB0"/>
        <path d="M32.8887 9.95807H39.3387C39.522 9.29205 39.6173 8.58897 39.6173 7.87109H32.8887V9.95807Z" fill="#ADADB0"/>
        <path d="M20.5527 19.8203H26.7169V21.9073H20.5527V19.8203Z" fill="#ADADB0"/>
        <path d="M32.8887 19.8203V21.9073H39.6173C39.6173 21.1894 39.522 20.4864 39.3387 19.8203H32.8887Z" fill="#ADADB0"/>
        <path d="M16.4414 29.8578L31.7677 29.8799C33.82 29.8799 35.6744 29.0807 37.0597 27.793H16.4414V29.8578Z" fill="#ADADB0"/>
        <path d="M41.1113 27.793H51.3874V29.8725H41.1113V27.793Z" fill="#ADADB0"/>
        <path d="M41.1113 23.8008H51.3874V25.8877H41.1113V23.8008Z" fill="#ADADB0"/>
        <path d="M45.2168 19.8203H51.3883V21.9073H45.2168V19.8203Z" fill="#ADADB0"/>
        <path d="M45.2148 15.8398H51.3864V17.9268H45.2148V15.8398Z" fill="#ADADB0"/>
        <path d="M54.246 3.88672H41.1113V5.9737H54.9569L54.246 3.88672Z" fill="#ADADB0"/>
        <path d="M52.8827 -0.09375H41.1113V1.99323H53.5936L52.8827 -0.09375Z" fill="#ADADB0"/>
        <path d="M63.7148 27.793H73.9983V29.8725H63.7148V27.793Z" fill="#ADADB0"/>
        <path d="M63.7148 23.8008H73.9983V25.8877H63.7148V23.8008Z" fill="#ADADB0"/>
        <path d="M63.7168 19.8203H69.8883V21.9073H63.7168V19.8203Z" fill="#ADADB0"/>
        <path d="M63.7148 15.8398H69.8864V17.9268H63.7148V15.8398Z" fill="#ADADB0"/>
        <path d="M63.7168 13.9464H69.8883V11.8594H63.7168H58.1316L57.5526 13.5468L56.9735 11.8594H51.3883H45.2168V13.9464H51.3883V12.0296L52.0407 13.9464H63.0645L63.7168 12.0296V13.9464Z" fill="#ADADB0"/>
        <path d="M69.8876 7.87109H59.4942L58.7832 9.95807H69.8876V7.87109Z" fill="#ADADB0"/>
        <path d="M62.2286 -0.09375L61.5176 1.99323H74V-0.09375H62.2286Z" fill="#ADADB0"/>
        <path d="M57.5508 29.8578L58.2618 27.793H56.8398L57.5508 29.8578Z" fill="#ADADB0"/>
        <path d="M56.1885 25.8877H58.9151L59.6481 23.8008H55.4629L56.1885 25.8877Z" fill="#ADADB0"/>
        <path d="M54.8038 21.9073H60.301L61.0266 19.8203H54.0781L54.8038 21.9073Z" fill="#ADADB0"/>
        <path d="M53.4258 17.9268H61.6863L62.39 15.8398H52.7148L53.4258 17.9268Z" fill="#ADADB0"/>
        <path d="M45.2148 9.95807H56.3192L55.6083 7.87109H45.2148V9.95807Z" fill="#ADADB0"/>
        <path d="M60.1543 5.9737H74V3.88672H60.858L60.1543 5.9737Z" fill="#ADADB0"/>
    </g>
    <defs>
        <clipPath id="clip0_1895_40350">
            <rect width="74" height="30" fill="white"/>
        </clipPath>
    </defs>
</svg>

<svg xmlns="http://www.w3.org/2000/svg" width="74" height="30" fill="none"><g fill="#ADADB0" clip-path="url(#a)"><path d="M0 27.793h14.388v2.08H0v-2.08ZM0 23.8h14.388v2.088H0V23.8ZM4.105 19.82h6.172v2.087H4.105V19.82ZM4.105 15.84h6.172v2.087H4.105V15.84ZM4.105 11.86h6.172v2.086H4.105V11.86ZM4.105 7.871h6.172v2.087H4.105V7.871ZM14.388 3.887H0v2.087h14.388V3.887ZM14.388-.094H0v2.087h14.388V-.094ZM16.441 25.888H38.57a7.456 7.456 0 0 0 .822-2.087H16.44v2.087ZM36.846 15.84H20.553v2.087h18.016a8.335 8.335 0 0 0-1.723-2.087ZM20.553 11.86v2.086h16.293a7.75 7.75 0 0 0 1.723-2.087H20.553ZM38.57 3.887H16.44v2.087h22.95a9.08 9.08 0 0 0-.821-2.087ZM31.768-.094H16.44v2.087h20.611a7.74 7.74 0 0 0-5.284-2.087ZM26.717 7.871h-6.164v2.087h6.164V7.871ZM32.889 9.958h6.45c.183-.666.278-1.369.278-2.087H32.89v2.087ZM20.553 19.82h6.164v2.087h-6.164V19.82ZM32.889 19.82v2.087h6.728c0-.718-.095-1.42-.278-2.087h-6.45ZM16.441 29.858l15.327.022c2.052 0 3.906-.8 5.292-2.087H16.44v2.065ZM41.111 27.793h10.276v2.08H41.111v-2.08ZM41.111 23.8h10.276v2.088H41.111V23.8ZM45.217 19.82h6.171v2.087h-6.171V19.82ZM45.215 15.84h6.171v2.087h-6.171V15.84ZM54.246 3.887H41.111v2.087h13.846l-.711-2.087ZM52.883-.094H41.11v2.087h12.483l-.711-2.087ZM63.715 27.793h10.283v2.08H63.715v-2.08ZM63.715 23.8h10.283v2.088H63.715V23.8ZM63.717 19.82h6.171v2.087h-6.171V19.82ZM63.715 15.84h6.171v2.087h-6.171V15.84ZM63.717 13.946h6.171V11.86H58.132l-.58 1.688-.578-1.688H45.216v2.087h6.171V12.03l.653 1.916h11.024l.652-1.916v1.916ZM69.888 7.871H59.494l-.71 2.087h11.104V7.871ZM62.229-.094l-.711 2.087H74V-.094H62.229ZM57.55 29.858l.712-2.065H56.84l.71 2.065ZM56.188 25.888h2.727l.733-2.087h-4.185l.725 2.087ZM54.804 21.907H60.3l.726-2.087h-6.949l.726 2.087ZM53.426 17.927h8.26l.704-2.087h-9.675l.71 2.087ZM45.215 9.958h11.104l-.71-2.087H45.214v2.087ZM60.154 5.974H74V3.887H60.858l-.704 2.087Z"/></g><defs><clipPath id="a"><path fill="#fff" d="M0 0h74v30H0z"/></clipPath></defs></svg>
